X:1
T:Title
%%score ( 1 2 ) { 3 | 4 }
L:1/8
Q:1/4=100
M:4/4
K:C
V:1 treble nm="Grand Piano, Soprano"
V:2 treble 
V:3 treble nm="Choir Pad, New Year�s Hymn (Parker)"
V:4 bass 
V:1
 [EG]2 [CE]>[DF] [EG]2 [FA]>B | [Ec]2 [Fc]2 [Ec]3 [Ec] | [Dd]2 [Dc]>B [EA]2 [GB]>c | %3
w: By~Howrard~Kingsbury * * * * *|||
 [GB]2 [^FA]2 G3 [DG] | [EG]2 [CE]>[DF] [EG]2 [FA]>B | [Ec]2 [Fd]2 [Ge]3 [Ee] | edcB dcBA | %7
w: ||||
 [DG]2 [^FA]2 [GB]2 z2 | [GB]2 [GB]>[Ac] [Bd]3 G | cGEG c2 z2 | [GB]2 [GB]>[Ac] [Bd]3 G | %11
w: ||||
 cGce [Gd]2 z2 | [Ge]2 [Ge]>[Ge] [^Ge]3 [Ge] | [Ad]2 [Ac]2 [GB]2 [FA]2 | [EG]2 [Gc]2 [GB]4 | %15
w: ||||
 [Gc]8 |] %16
w: |
V:2
 x8 | x8 | x8 | x8 | x8 | x8 | G2 G2 E2 E2 | x8 | x8 | x8 | x8 | z2 G2 z4 | x8 | x8 | x8 | x8 |] %16
V:3
 C2 G,>G, C2 C2 | G,2 A,2 G,3 G, | G,2 ^F,>G, G,2[K:treble] D>E | D2 C2 B,3 B, | C2 G,2 C2 C2 | %5
 G,2 G,2 C3 G, | G,2 G,2 G,2 G,A, | B,2[K:treble] D2 D2 z2 | D2 D>C[K:bass] B,3 G, | %9
 CG,E,G, C2 z2 | D2 D>C B,3 G, | CG, C2 B,2 z2 | C2 C>C[K:bass] B,3 B, | A,2 A,2 C2[K:treble] C2 | %14
 C2 E2 D4 | E8 |] %16
V:4
 C,2 C,>C, C,2 C,2 | C,2 F,2 C,3 C, | C,2 B,,>G,, C,2 B,,>A,, | D,2 D,2 G,3 G, | C,2 C,2 C,2 C,2 | %5
 C,2 C,2 C,3 C, | B,,2 E,2 A,,2 B,,C, | D,2 D,2 G,,2 z2 | G,2 G,>G, G,4 | z8 | G,2 G,>G, G,4 | %11
 z2 E,C, G,2 z2 | C,2 C,>C, E,3 E, | F,2 F,2 F,2 F,2 | G,4 G,,4 | C,8 |] %16

